src/svg/28/qr_code_outline_28.svg

<?xml version="1.0" encoding="UTF-8"?>
<svg width="28px" height="28px" viewBox="0 0 28 28" version="1.1" xmlns="http://www.w3.org/2000/svg" xmlns:xlink="http://www.w3.org/1999/xlink">
    <!-- Generator: Sketch 63.1 (92452) - https://sketch.com -->
    <title>qr_code_outline_28</title>
    <desc>Created with Sketch.</desc>
    <g id="Page-1" stroke="none" stroke-width="1" fill="none" fill-rule="evenodd">
        <g id="qr_code_outline_28">
            <polygon points="0 0 28 0 28 28 0 28"></polygon>
            <path d="M9.34646359,15 C10.6168778,15 11.0775607,15.1322765 11.5420051,15.3806641 C12.0064496,15.6290517 12.3709483,15.9935504 12.6193359,16.4579949 C12.8677235,16.9224393 13,17.3831222 13,18.6535364 L13,21.3464636 C13,22.6168778 12.8677235,23.0775607 12.6193359,23.5420051 C12.3709483,24.0064496 12.0064496,24.3709483 11.5420051,24.6193359 C11.0775607,24.8677235 10.6168778,25 9.34646359,25 L6.65353641,25 C5.38312221,25 4.92243932,24.8677235 4.45799487,24.6193359 C3.99355043,24.3709483 3.62905171,24.0064496 3.3806641,23.5420051 C3.1322765,23.0775607 3,22.6168778 3,21.3464636 L3,18.6535364 C3,17.3831222 3.1322765,16.9224393 3.3806641,16.4579949 C3.62905171,15.9935504 3.99355043,15.6290517 4.45799487,15.3806641 C4.92243932,15.1322765 5.38312221,15 6.65353641,15 L9.34646359,15 Z M23.5385431,22 C23.8728626,22 23.9940949,22.0348096 24.1163171,22.1001748 C24.2385394,22.1655399 24.3344601,22.2614606 24.3998252,22.3836829 C24.4651904,22.5059051 24.5,22.6271374 24.5,22.9614569 L24.5,23.5385431 C24.5,23.8728626 24.4651904,23.9940949 24.3998252,24.1163171 C24.3344601,24.2385394 24.2385394,24.3344601 24.1163171,24.3998252 C23.9940949,24.4651904 23.8728626,24.5 23.5385431,24.5 L22.9614569,24.5 C22.6271374,24.5 22.5059051,24.4651904 22.3836829,24.3998252 C22.2614606,24.3344601 22.1655399,24.2385394 22.1001748,24.1163171 C22.0348096,23.9940949 22,23.8728626 22,23.5385431 L22,22.9614569 C22,22.6271374 22.0348096,22.5059051 22.1001748,22.3836829 C22.1655399,22.2614606 22.2614606,22.1655399 22.3836829,22.1001748 C22.5059051,22.0348096 22.6271374,22 22.9614569,22 L23.5385431,22 Z M17.0385431,22 C17.3728626,22 17.4940949,22.0348096 17.6163171,22.1001748 C17.7385394,22.1655399 17.8344601,22.2614606 17.8998252,22.3836829 C17.9651904,22.5059051 18,22.6271374 18,22.9614569 L18,23.5385431 C18,23.8728626 17.9651904,23.9940949 17.8998252,24.1163171 C17.8344601,24.2385394 17.7385394,24.3344601 17.6163171,24.3998252 C17.4940949,24.4651904 17.3728626,24.5 17.0385431,24.5 L16.4614569,24.5 C16.1271374,24.5 16.0059051,24.4651904 15.8836829,24.3998252 C15.7614606,24.3344601 15.6655399,24.2385394 15.6001748,24.1163171 C15.5348096,23.9940949 15.5,23.8728626 15.5,23.5385431 L15.5,22.9614569 C15.5,22.6271374 15.5348096,22.5059051 15.6001748,22.3836829 C15.6655399,22.2614606 15.7614606,22.1655399 15.8836829,22.1001748 C16.0059051,22.0348096 16.1271374,22 16.4614569,22 L17.0385431,22 Z M9.52012058,17.0005947 L6.65353641,17 C5.79720214,17 5.59966533,17.0381461 5.40119259,17.1442905 C5.28528509,17.2062785 5.20627851,17.2852851 5.1442905,17.4011926 C5.04572786,17.5854887 5.00579638,17.7689778 5.00059475,18.4798794 L5,21.3464636 C5,22.2027979 5.03814612,22.4003347 5.1442905,22.5988074 C5.20627851,22.7147149 5.28528509,22.7937215 5.40119259,22.8557095 C5.59966533,22.9618539 5.79720214,23 6.65353641,23 L9.34646359,23 C10.2027979,23 10.4003347,22.9618539 10.5988074,22.8557095 C10.7147149,22.7937215 10.7937215,22.7147149 10.8557095,22.5988074 C10.9618539,22.4003347 11,22.2027979 11,21.3464636 L11,18.6535364 C11,17.7972021 10.9618539,17.5996653 10.8557095,17.4011926 C10.7937215,17.2852851 10.7147149,17.2062785 10.5988074,17.1442905 C10.4145113,17.0457279 10.2310222,17.0057964 9.52012058,17.0005947 Z M8.28854305,18.75 C8.62286258,18.75 8.74409492,18.7848096 8.86631714,18.8501748 C8.98853936,18.9155399 9.08446008,19.0114606 9.14982524,19.1336829 C9.2151904,19.2559051 9.25,19.3771374 9.25,19.7114569 L9.25,20.2885431 C9.25,20.6228626 9.2151904,20.7440949 9.14982524,20.8663171 C9.08446008,20.9885394 8.98853936,21.0844601 8.86631714,21.1498252 C8.74409492,21.2151904 8.62286258,21.25 8.28854305,21.25 L7.71145695,21.25 C7.37713742,21.25 7.25590508,21.2151904 7.13368286,21.1498252 C7.01146064,21.0844601 6.91553992,20.9885394 6.85017476,20.8663171 C6.7848096,20.7440949 6.75,20.6228626 6.75,20.2885431 L6.75,19.7114569 C6.75,19.3771374 6.7848096,19.2559051 6.85017476,19.1336829 C6.91553992,19.0114606 7.01146064,18.9155399 7.13368286,18.8501748 C7.25590508,18.7848096 7.37713742,18.75 7.71145695,18.75 L8.28854305,18.75 Z M20.2885431,18.75 C20.6228626,18.75 20.7440949,18.7848096 20.8663171,18.8501748 C20.9885394,18.9155399 21.0844601,19.0114606 21.1498252,19.1336829 C21.2151904,19.2559051 21.25,19.3771374 21.25,19.7114569 L21.25,20.2885431 C21.25,20.6228626 21.2151904,20.7440949 21.1498252,20.8663171 C21.0844601,20.9885394 20.9885394,21.0844601 20.8663171,21.1498252 C20.7440949,21.2151904 20.6228626,21.25 20.2885431,21.25 L19.7114569,21.25 C19.3771374,21.25 19.2559051,21.2151904 19.1336829,21.1498252 C19.0114606,21.0844601 18.9155399,20.9885394 18.8501748,20.8663171 C18.7848096,20.7440949 18.75,20.6228626 18.75,20.2885431 L18.75,19.7114569 C18.75,19.3771374 18.7848096,19.2559051 18.8501748,19.1336829 C18.9155399,19.0114606 19.0114606,18.9155399 19.1336829,18.8501748 C19.2559051,18.7848096 19.3771374,18.75 19.7114569,18.75 L20.2885431,18.75 Z M17.0385431,15.5 C17.3728626,15.5 17.4940949,15.5348096 17.6163171,15.6001748 C17.7385394,15.6655399 17.8344601,15.7614606 17.8998252,15.8836829 C17.9651904,16.0059051 18,16.1271374 18,16.4614569 L18,17.0385431 C18,17.3728626 17.9651904,17.4940949 17.8998252,17.6163171 C17.8344601,17.7385394 17.7385394,17.8344601 17.6163171,17.8998252 C17.4940949,17.9651904 17.3728626,18 17.0385431,18 L16.4614569,18 C16.1271374,18 16.0059051,17.9651904 15.8836829,17.8998252 C15.7614606,17.8344601 15.6655399,17.7385394 15.6001748,17.6163171 C15.5348096,17.4940949 15.5,17.3728626 15.5,17.0385431 L15.5,16.4614569 C15.5,16.1271374 15.5348096,16.0059051 15.6001748,15.8836829 C15.6655399,15.7614606 15.7614606,15.6655399 15.8836829,15.6001748 C16.0059051,15.5348096 16.1271374,15.5 16.4614569,15.5 L17.0385431,15.5 Z M23.5385431,15.5 C23.8728626,15.5 23.9940949,15.5348096 24.1163171,15.6001748 C24.2385394,15.6655399 24.3344601,15.7614606 24.3998252,15.8836829 C24.4651904,16.0059051 24.5,16.1271374 24.5,16.4614569 L24.5,17.0385431 C24.5,17.3728626 24.4651904,17.4940949 24.3998252,17.6163171 C24.3344601,17.7385394 24.2385394,17.8344601 24.1163171,17.8998252 C23.9940949,17.9651904 23.8728626,18 23.5385431,18 L22.9614569,18 C22.6271374,18 22.5059051,17.9651904 22.3836829,17.8998252 C22.2614606,17.8344601 22.1655399,17.7385394 22.1001748,17.6163171 C22.0348096,17.4940949 22,17.3728626 22,17.0385431 L22,16.4614569 C22,16.1271374 22.0348096,16.0059051 22.1001748,15.8836829 C22.1655399,15.7614606 22.2614606,15.6655399 22.3836829,15.6001748 C22.5059051,15.5348096 22.6271374,15.5 22.9614569,15.5 L23.5385431,15.5 Z M9.34646359,3 C10.6168778,3 11.0775607,3.1322765 11.5420051,3.3806641 C12.0064496,3.62905171 12.3709483,3.99355043 12.6193359,4.45799487 C12.8677235,4.92243932 13,5.38312221 13,6.65353641 L13,9.34646359 C13,10.6168778 12.8677235,11.0775607 12.6193359,11.5420051 C12.3709483,12.0064496 12.0064496,12.3709483 11.5420051,12.6193359 C11.0775607,12.8677235 10.6168778,13 9.34646359,13 L6.65353641,13 C5.38312221,13 4.92243932,12.8677235 4.45799487,12.6193359 C3.99355043,12.3709483 3.62905171,12.0064496 3.3806641,11.5420051 C3.1322765,11.0775607 3,10.6168778 3,9.34646359 L3,6.65353641 C3,5.38312221 3.1322765,4.92243932 3.3806641,4.45799487 C3.62905171,3.99355043 3.99355043,3.62905171 4.45799487,3.3806641 C4.92243932,3.1322765 5.38312221,3 6.65353641,3 L9.34646359,3 Z M21.3464636,3 C22.6168778,3 23.0775607,3.1322765 23.5420051,3.3806641 C24.0064496,3.62905171 24.3709483,3.99355043 24.6193359,4.45799487 C24.8677235,4.92243932 25,5.38312221 25,6.65353641 L25,9.34646359 C25,10.6168778 24.8677235,11.0775607 24.6193359,11.5420051 C24.3709483,12.0064496 24.0064496,12.3709483 23.5420051,12.6193359 C23.0775607,12.8677235 22.6168778,13 21.3464636,13 L18.6535364,13 C17.3831222,13 16.9224393,12.8677235 16.4579949,12.6193359 C15.9935504,12.3709483 15.6290517,12.0064496 15.3806641,11.5420051 C15.1322765,11.0775607 15,10.6168778 15,9.34646359 L15,6.65353641 C15,5.38312221 15.1322765,4.92243932 15.3806641,4.45799487 C15.6290517,3.99355043 15.9935504,3.62905171 16.4579949,3.3806641 C16.9224393,3.1322765 17.3831222,3 18.6535364,3 L21.3464636,3 Z M9.52012058,5.00059475 L6.65353641,5 C5.79720214,5 5.59966533,5.03814612 5.40119259,5.1442905 C5.28528509,5.20627851 5.20627851,5.28528509 5.1442905,5.40119259 C5.04572786,5.5854887 5.00579638,5.76897782 5.00059475,6.47987942 L5,9.34646359 C5,10.2027979 5.03814612,10.4003347 5.1442905,10.5988074 C5.20627851,10.7147149 5.28528509,10.7937215 5.40119259,10.8557095 C5.59966533,10.9618539 5.79720214,11 6.65353641,11 L9.34646359,11 C10.2027979,11 10.4003347,10.9618539 10.5988074,10.8557095 C10.7147149,10.7937215 10.7937215,10.7147149 10.8557095,10.5988074 C10.9618539,10.4003347 11,10.2027979 11,9.34646359 L11,6.65353641 C11,5.79720214 10.9618539,5.59966533 10.8557095,5.40119259 C10.7937215,5.28528509 10.7147149,5.20627851 10.5988074,5.1442905 C10.4145113,5.04572786 10.2310222,5.00579638 9.52012058,5.00059475 Z M21.5201206,5.00059475 L18.6535364,5 C17.7972021,5 17.5996653,5.03814612 17.4011926,5.1442905 C17.2852851,5.20627851 17.2062785,5.28528509 17.1442905,5.40119259 C17.0457279,5.5854887 17.0057964,5.76897782 17.0005947,6.47987942 L17,9.34646359 C17,10.2027979 17.0381461,10.4003347 17.1442905,10.5988074 C17.2062785,10.7147149 17.2852851,10.7937215 17.4011926,10.8557095 C17.5996653,10.9618539 17.7972021,11 18.6535364,11 L21.3464636,11 C22.2027979,11 22.4003347,10.9618539 22.5988074,10.8557095 C22.7147149,10.7937215 22.7937215,10.7147149 22.8557095,10.5988074 C22.9618539,10.4003347 23,10.2027979 23,9.34646359 L23,6.65353641 C23,5.79720214 22.9618539,5.59966533 22.8557095,5.40119259 C22.7937215,5.28528509 22.7147149,5.20627851 22.5988074,5.1442905 C22.4145113,5.04572786 22.2310222,5.00579638 21.5201206,5.00059475 Z M8.28854305,6.75 C8.62286258,6.75 8.74409492,6.7848096 8.86631714,6.85017476 C8.98853936,6.91553992 9.08446008,7.01146064 9.14982524,7.13368286 C9.2151904,7.25590508 9.25,7.37713742 9.25,7.71145695 L9.25,8.28854305 C9.25,8.62286258 9.2151904,8.74409492 9.14982524,8.86631714 C9.08446008,8.98853936 8.98853936,9.08446008 8.86631714,9.14982524 C8.74409492,9.2151904 8.62286258,9.25 8.28854305,9.25 L7.71145695,9.25 C7.37713742,9.25 7.25590508,9.2151904 7.13368286,9.14982524 C7.01146064,9.08446008 6.91553992,8.98853936 6.85017476,8.86631714 C6.7848096,8.74409492 6.75,8.62286258 6.75,8.28854305 L6.75,7.71145695 C6.75,7.37713742 6.7848096,7.25590508 6.85017476,7.13368286 C6.91553992,7.01146064 7.01146064,6.91553992 7.13368286,6.85017476 C7.25590508,6.7848096 7.37713742,6.75 7.71145695,6.75 L8.28854305,6.75 Z M20.2885431,6.75 C20.6228626,6.75 20.7440949,6.7848096 20.8663171,6.85017476 C20.9885394,6.91553992 21.0844601,7.01146064 21.1498252,7.13368286 C21.2151904,7.25590508 21.25,7.37713742 21.25,7.71145695 L21.25,8.28854305 C21.25,8.62286258 21.2151904,8.74409492 21.1498252,8.86631714 C21.0844601,8.98853936 20.9885394,9.08446008 20.8663171,9.14982524 C20.7440949,9.2151904 20.6228626,9.25 20.2885431,9.25 L19.7114569,9.25 C19.3771374,9.25 19.2559051,9.2151904 19.1336829,9.14982524 C19.0114606,9.08446008 18.9155399,8.98853936 18.8501748,8.86631714 C18.7848096,8.74409492 18.75,8.62286258 18.75,8.28854305 L18.75,7.71145695 C18.75,7.37713742 18.7848096,7.25590508 18.8501748,7.13368286 C18.9155399,7.01146064 19.0114606,6.91553992 19.1336829,6.85017476 C19.2559051,6.7848096 19.3771374,6.75 19.7114569,6.75 L20.2885431,6.75 Z" id="↳-Icon-Color" fill="currentColor" fill-rule="nonzero"></path>
        </g>
    </g>
</svg>

<svg xmlns="http://www.w3.org/2000/svg" width="28" height="28" fill="none" viewBox="0 0 28 28"><path fill="currentColor" d="M9.3465 15c1.2704 0 1.7311.1323 2.1955.3807.4645.2484.8289.6128 1.0773 1.0773.2484.4644.3807.9251.3807 2.1955v2.693c0 1.2704-.1323 1.7311-.3807 2.1955-.2484.4645-.6128.8289-1.0773 1.0773-.4644.2484-.9251.3807-2.1955.3807h-2.693c-1.2704 0-1.731-.1323-2.1955-.3807-.4645-.2484-.829-.6128-1.0773-1.0773C3.1323 23.0776 3 22.6169 3 21.3465v-2.693c0-1.2704.1323-1.7311.3807-2.1955.2483-.4645.6128-.8289 1.0773-1.0773.4644-.2484.925-.3807 2.1955-.3807h2.693Zm14.192 7c.3344 0 .4556.0348.5778.1002a.681.681 0 0 1 .2835.2835c.0654.1222.1002.2434.1002.5778v.577c0 .3344-.0348.4556-.1002.5778a.681.681 0 0 1-.2835.2835c-.1222.0654-.2434.1002-.5778.1002h-.577c-.3344 0-.4556-.0348-.5778-.1002a.681.681 0 0 1-.2835-.2835c-.0654-.1222-.1002-.2434-.1002-.5778v-.577c0-.3344.0348-.4556.1002-.5778a.681.681 0 0 1 .2835-.2835c.1222-.0654.2434-.1002.5778-.1002h.577Zm-6.5 0c.3344 0 .4556.0348.5778.1002a.681.681 0 0 1 .2835.2835c.0654.1222.1002.2434.1002.5778v.577c0 .3344-.0348.4556-.1002.5778a.681.681 0 0 1-.2835.2835c-.1222.0654-.2434.1002-.5778.1002h-.577c-.3344 0-.4556-.0348-.5778-.1002a.681.681 0 0 1-.2835-.2835c-.0654-.1222-.1002-.2434-.1002-.5778v-.577c0-.3344.0348-.4556.1002-.5778a.681.681 0 0 1 .2835-.2835c.1222-.0654.2434-.1002.5778-.1002h.577Zm-7.5184-4.9994L6.6535 17c-.8563 0-1.0538.0381-1.2523.1443-.116.062-.195.141-.257.2569-.0985.1843-.1384.3678-.1436 1.0787L5 21.3465c0 .8563.0381 1.0538.1443 1.2523.062.1159.141.1949.2569.2569.1985.1062.396.1443 1.2523.1443h2.693c.8563 0 1.0538-.0381 1.2523-.1443.1159-.062.1949-.141.2569-.2569.1062-.1985.1443-.396.1443-1.2523v-2.693c0-.8563-.0381-1.0538-.1443-1.2523-.062-.1159-.141-.1949-.2569-.2569-.1843-.0986-.3678-.1385-1.0787-.1437ZM8.2885 18.75c.3344 0 .4556.0348.5778.1002a.6813.6813 0 0 1 .2835.2835c.0654.1222.1002.2434.1002.5778v.577c0 .3344-.0348.4556-.1002.5778a.6813.6813 0 0 1-.2835.2835c-.1222.0654-.2434.1002-.5778.1002h-.577c-.3344 0-.4556-.0348-.5778-.1002a.6813.6813 0 0 1-.2835-.2835c-.0654-.1222-.1002-.2434-.1002-.5778v-.577c0-.3344.0348-.4556.1002-.5778a.6813.6813 0 0 1 .2835-.2835c.1222-.0654.2434-.1002.5778-.1002h.577Zm12 0c.3344 0 .4556.0348.5778.1002a.681.681 0 0 1 .2835.2835c.0654.1222.1002.2434.1002.5778v.577c0 .3344-.0348.4556-.1002.5778a.681.681 0 0 1-.2835.2835c-.1222.0654-.2434.1002-.5778.1002h-.577c-.3344 0-.4556-.0348-.5778-.1002a.681.681 0 0 1-.2835-.2835c-.0654-.1222-.1002-.2434-.1002-.5778v-.577c0-.3344.0348-.4556.1002-.5778a.681.681 0 0 1 .2835-.2835c.1222-.0654.2434-.1002.5778-.1002h.577Zm-3.25-3.25c.3344 0 .4556.0348.5778.1002a.681.681 0 0 1 .2835.2835c.0654.1222.1002.2434.1002.5778v.577c0 .3344-.0348.4556-.1002.5778a.681.681 0 0 1-.2835.2835c-.1222.0654-.2434.1002-.5778.1002h-.577c-.3344 0-.4556-.0348-.5778-.1002a.681.681 0 0 1-.2835-.2835c-.0654-.1222-.1002-.2434-.1002-.5778v-.577c0-.3344.0348-.4556.1002-.5778a.681.681 0 0 1 .2835-.2835c.1222-.0654.2434-.1002.5778-.1002h.577Zm6.5 0c.3344 0 .4556.0348.5778.1002a.681.681 0 0 1 .2835.2835c.0654.1222.1002.2434.1002.5778v.577c0 .3344-.0348.4556-.1002.5778a.681.681 0 0 1-.2835.2835c-.1222.0654-.2434.1002-.5778.1002h-.577c-.3344 0-.4556-.0348-.5778-.1002a.681.681 0 0 1-.2835-.2835c-.0654-.1222-.1002-.2434-.1002-.5778v-.577c0-.3344.0348-.4556.1002-.5778a.681.681 0 0 1 .2835-.2835c.1222-.0654.2434-.1002.5778-.1002h.577ZM9.3465 3c1.2704 0 1.7311.1323 2.1955.3807.4645.2483.8289.6128 1.0773 1.0773.2484.4644.3807.9251.3807 2.1955v2.693c0 1.2704-.1323 1.7311-.3807 2.1955-.2484.4645-.6128.8289-1.0773 1.0773-.4644.2484-.9251.3807-2.1955.3807h-2.693c-1.2704 0-1.731-.1323-2.1955-.3807-.4645-.2484-.829-.6128-1.0773-1.0773C3.1323 11.0776 3 10.6169 3 9.3465v-2.693c0-1.2704.1323-1.731.3807-2.1955.2483-.4645.6128-.829 1.0773-1.0773C4.9224 3.1323 5.383 3 6.6535 3h2.693Zm12 0c1.2704 0 1.7311.1323 2.1955.3807.4645.2483.8289.6128 1.0773 1.0773.2484.4644.3807.9251.3807 2.1955v2.693c0 1.2704-.1323 1.7311-.3807 2.1955-.2484.4645-.6128.8289-1.0773 1.0773-.4644.2484-.9251.3807-2.1955.3807h-2.693c-1.2704 0-1.7311-.1323-2.1955-.3807-.4645-.2484-.8289-.6128-1.0773-1.0773-.2484-.4644-.3807-.9251-.3807-2.1955v-2.693c0-1.2704.1323-1.731.3807-2.1955.2484-.4645.6128-.829 1.0773-1.0773.4644-.2484.9251-.3807 2.1955-.3807h2.693ZM9.5201 5.0006 6.6535 5c-.8563 0-1.0538.0381-1.2523.1443-.116.062-.195.141-.257.2569-.0985.1843-.1384.3678-.1436 1.0787L5 9.3465c0 .8563.0381 1.0538.1443 1.2523.062.1159.141.1949.2569.2569.1985.1062.396.1443 1.2523.1443h2.693c.8563 0 1.0538-.0381 1.2523-.1443.1159-.062.1949-.141.2569-.2569.1062-.1985.1443-.396.1443-1.2523v-2.693c0-.8563-.0381-1.0538-.1443-1.2523-.062-.116-.141-.195-.2569-.257-.1843-.0985-.3678-.1384-1.0787-.1436Zm12 0L18.6535 5c-.8563 0-1.0538.0381-1.2523.1443-.1159.062-.1949.141-.2569.2569-.0986.1843-.1385.3678-.1437 1.0787L17 9.3465c0 .8563.0381 1.0538.1443 1.2523.062.1159.141.1949.2569.2569.1985.1062.396.1443 1.2523.1443h2.693c.8563 0 1.0538-.0381 1.2523-.1443.1159-.062.1949-.141.2569-.2569.1062-.1985.1443-.396.1443-1.2523v-2.693c0-.8563-.0381-1.0538-.1443-1.2523-.062-.116-.141-.195-.2569-.257-.1843-.0985-.3678-.1384-1.0787-.1436ZM8.2885 6.75c.3344 0 .4556.0348.5778.1002a.6816.6816 0 0 1 .2835.2835c.0654.1222.1002.2434.1002.5778v.577c0 .3344-.0348.4556-.1002.5778a.6816.6816 0 0 1-.2835.2835c-.1222.0654-.2434.1002-.5778.1002h-.577c-.3344 0-.4556-.0348-.5778-.1002a.6816.6816 0 0 1-.2835-.2835c-.0654-.1222-.1002-.2434-.1002-.5778v-.577c0-.3344.0348-.4556.1002-.5778a.6816.6816 0 0 1 .2835-.2835c.1222-.0654.2434-.1002.5778-.1002h.577Zm12 0c.3344 0 .4556.0348.5778.1002a.6813.6813 0 0 1 .2835.2835c.0654.1222.1002.2434.1002.5778v.577c0 .3344-.0348.4556-.1002.5778a.6813.6813 0 0 1-.2835.2835c-.1222.0654-.2434.1002-.5778.1002h-.577c-.3344 0-.4556-.0348-.5778-.1002a.6813.6813 0 0 1-.2835-.2835c-.0654-.1222-.1002-.2434-.1002-.5778v-.577c0-.3344.0348-.4556.1002-.5778a.6813.6813 0 0 1 .2835-.2835c.1222-.0654.2434-.1002.5778-.1002h.577Z"/></svg>
